other/teoritentamen.svg

<svg xmlns="http://www.w3.org/2000/svg" viewBox="0 0 48 48"><defs><style>.a{fill:none;stroke:#fff;stroke-linecap:round;stroke-linejoin:round;stroke-width:0.75px;}</style></defs><path class="a" d="M35.6091,19.875C41.5677,28.3335,41.9837,34.3961,42.5,40.5a1.9466,1.9466,0,0,1-2,2H30.8852a2.0007,2.0007,0,0,1-2-2A21.3148,21.3148,0,0,0,24,27.1776,21.3146,21.3146,0,0,0,19.1147,40.5a2.0007,2.0007,0,0,1-2,2H7.5a1.9466,1.9466,0,0,1-2-2c.516-6.1039.932-12.1665,6.8906-20.625A18.8871,18.8871,0,0,0,7.5,19.219a1.9465,1.9465,0,0,1-2-2V7.5005a1.9838,1.9838,0,0,1,2-2A34.4333,34.4333,0,0,1,24,9.8445,34.433,34.433,0,0,1,40.5,5.5006a1.9838,1.9838,0,0,1,2,2v9.7186a1.9465,1.9465,0,0,1-2,2,18.8871,18.8871,0,0,0-4.8906.656Zm.084,19.4637c.02.5306.0254,1.0627.0093,1.5987M35.3118,35.76c.0947.5267.172,1.052.2293,1.5839m-1.0933-5.0732c.1614.5054.312,1.0213.4427,1.536m-1.7654-4.8853q.3441.7281.64,1.4693m-2.38-4.6145c.2867.4479.5627.9066.8227,1.3693m-2.9374-4.2813q.5081.618.984,1.2613M26.8173,20.23c.3853.3693.7666.744,1.1306,1.1346m-3.88-3.4519c.4266.3173.8493.6506,1.26.9893m-4.2706-2.9586c.464.2653.9159.5413,1.3693.8279M17.8227,14.37c.4894.2039.98.4173,1.464.652m-4.88-1.7813c.5147.1293,1.0307.2813,1.536.4426M10.87,12.5938c.5267.0573,1.0574.1306,1.584.224m-5.1772-.3333c.5306-.0254,1.0626-.0307,1.5986-.02m3.5679,26.8743c-.0213.5306-.0266,1.0627-.0106,1.5987m.3906-5.1773c-.0933.5267-.172,1.0573-.2293,1.5839m1.0947-5.0732c-.1614.5054-.3081,1.0213-.4427,1.536m1.7653-4.8853c-.224.4854-.4427.9747-.6413,1.4693m2.38-4.6145c-.2853.4479-.5613.9066-.8226,1.3693m2.9373-4.2813c-.3374.412-.6667.8333-.984,1.2613M30.3119,14.37c-.4894.2039-.9787.4173-1.4574.652m4.8747-1.7813c-.5161.1293-1.032.2813-1.536.4426M37.27,12.5938c-.5306.0573-1.0626.1306-1.5879.224m5.1812-.3333c-.536-.0254-1.0666-.0307-1.604-.02"/></svg>

<svg viewBox="0 0 48 48" xmlns="http://www.w3.org/2000/svg"><defs><style>.a{fill:none;stroke:#fff;stroke-linecap:round;stroke-linejoin:round}</style></defs><path class="a" d="M35.61 19.875c5.956 8.46 6.373 14.52 6.89 20.625.093 1.1-.895 2-2 2h-9.613a2 2 0 01-2-2s.24-7.373-4.887-13.323c-5.127 5.95-4.887 13.323-4.887 13.323a2 2 0 01-2 2H7.5c-1.105 0-2.093-.9-2-2 .517-6.105.934-12.166 6.89-20.625-1.44-.444-3.118-.606-4.89-.656-1.105 0-2.093-.9-2-2V7.5c0-1.105.896-2.026 2-2 5.836.139 11.575 1.483 16.5 4.346C28.925 6.983 34.664 5.64 40.5 5.5c1.104-.026 2 .895 2 2v9.719c.093 1.1-.895 2-2 2-1.772.05-3.45.212-4.89.656zM35.695 39.338c.02.53.023 1.063.01 1.599M35.314 35.763c.092.523.17 1.05.23 1.582M34.447 32.27c.163.507.311 1.02.444 1.538M33.126 28.924c.227.482.441.971.641 1.466M31.386 25.775c.287.45.56.907.822 1.372M29.27 22.865c.34.41.668.832.985 1.261M26.818 20.231c.386.367.763.745 1.129 1.134M24.068 17.912c.428.318.847.648 1.258.99M21.056 15.944c.463.263.92.54 1.37.829M17.822 14.37c.493.202.981.418 1.463.649M14.408 13.237a26 26 0 011.536.446M10.868 12.594c.53.057 1.059.13 1.584.222M7.274 12.485a23.143 23.143 0 011.6-.02M12.442 39.338c-.02.53-.023 1.063-.01 1.599M12.823 35.763a25.85 25.85 0 00-.23 1.582M13.69 32.27c-.163.507-.311 1.02-.444 1.538M15.011 28.924c-.227.482-.441.971-.641 1.466M16.75 25.775c-.286.45-.56.907-.821 1.372M18.866 22.865c-.339.41-.667.832-.984 1.261M30.315 14.37c-.493.202-.981.418-1.463.649M33.729 13.237a26 26 0 00-1.536.446M37.27 12.594c-.531.057-1.06.13-1.586.222M40.863 12.485a23.143 23.143 0 00-1.6-.02"/></svg>
